src/images/services-section/icon/around-thailand.svg

<svg fill="none" height="139" viewBox="0 0 156 139" width="156" xmlns="http://www.w3.org/2000/svg" xmlns:xlink="http://www.w3.org/1999/xlink"><filter id="a" color-interpolation-filters="sRGB" filterUnits="userSpaceOnUse" height="142" width="156" x="0" y="-3"><feFlood flood-opacity="0" result="BackgroundImageFix"/><feColorMatrix in="SourceAlpha" type="matrix" values="0 0 0 0 0 0 0 0 0 0 0 0 0 0 0 0 0 0 127 0"/><feOffset dx="9" dy="9"/><feGaussianBlur stdDeviation="6"/><feColorMatrix type="matrix" values="0 0 0 0 0.9 0 0 0 0 0.9 0 0 0 0 0.9 0 0 0 0.5 0"/><feBlend in2="BackgroundImageFix" mode="normal" result="effect1_dropShadow"/><feColorMatrix in="SourceAlpha" type="matrix" values="0 0 0 0 0 0 0 0 0 0 0 0 0 0 0 0 0 0 127 0"/><feOffset dx="-9" dy="-9"/><feGaussianBlur stdDeviation="6"/><feColorMatrix type="matrix" values="0 0 0 0 0.99 0 0 0 0 0.99 0 0 0 0 0.99 0 0 0 0.5 0"/><feBlend in2="effect1_dropShadow" mode="normal" result="effect2_dropShadow"/><feBlend in="SourceGraphic" in2="effect2_dropShadow" mode="normal" result="shape"/></filter><clipPath id="b"><path d="m21 18h114v100h-114z"/></clipPath><clipPath id="c"><path d="m78.3192 24.383h28.1915v29.2553h-28.1915z"/></clipPath><clipPath id="d"><path d="m71.9362 55.2341h12.234v12.766h-12.234z"/></clipPath><clipPath id="e"><path d="m53.8511 42.4681h12.234v12.766h-12.234z"/></clipPath><clipPath id="f"><path d="m56.5107 21.7234h12.234v12.766h-12.234z"/></clipPath><clipPath id="g"><path d="m52.2553 88.7447h12.234v12.766h-12.234z"/></clipPath><g filter="url(#a)"><g clip-path="url(#b)"><path d="m69.536 113.986c.8582.707 2.2586 1.087 2.805 1.988.5899 1.62 7.4921 3.177 8.879.828.4207-.713 1.7614-1.08 1.7926-2.061.0396-1.245-.5572-1.517-1.3708-2.411-.8627-.948-1.3309-1.847-2.573-2.522-1.0263-.557-2.0742-1.097-3.0686-1.693-.9702-.582-2.0549-.96-2.8472-1.767-.6234-.635-.9805-1.801-1.4341-2.549-2.2559-3.719-4.0762-6.3145-6.6976-9.8731-1.1167-1.5159-4.2166-1.0747-4.2166-3.4612 0-1.8276.2654-3.5228.8015-5.3006.2902-.9623 1.9173-4.1009 2.4253-4.9876.3715-.6674 2.5855-5.1258 2.8515-6.3895 0 0 .2248-3.1037.1855-4.0644-.045-1.0999-.4453-2.4443 1.2338-2.77 1.5524-.301 3.4964.7781 3.6907 2.135.167 1.1656.6078 2.552 1.9087 3.1196 2.9024 1.2664 5.8262 2.6611 8.5626 4.1963 1.1703.6565 2.4108 2.0036 3.8806 2.1257 1.3167.1095 1.4056-.619 2.1617-1.2239.461-.3688.2493-1.7357.1898-2.2546-.1222-1.0664-.692-2.0461-1.0439-3.0552-.7984-2.289-2.2591-4.0463-1.972-6.552.1554-1.3563 1.4733-2.186 2.4149-3.1657.739-.769 1.6807-1.5433 2.8893-1.6288.7452-.0527 1.6745-.4785 2.3832-.6994.7851-.2447 1.3901-.2784 2.2144-.2944 1.1873-.0231 2.3368-.4499 3.5221-.497 1.0706-.0424 2.0136-.0258 3.0796 0 1.171.0284 2.158.147 3.321-.0092 1.839-.2468 3.132-3.0263 3.132-4.4539 0-1.3287.064-3.2115-.759-4.3527-.68-.9423-.936-2.0381-1.666-2.9448-.861-1.0694-1.196-2.5747-1.751-3.773-.249-.5388-.592-1.0103-.864-1.5276-.278-.5269-.241-.9917-.612-1.5275-.685-.9891-1.257-1.8514-1.603-2.9816-.307-1.0052-1.6786-1.9191-2.5729-2.5399-.8872-.6158-1.6861-1.4408-2.6995-1.8957-2.0028-.8988-3.4704-.903-5.5994-.4141-1.2881.2958-1.903 1.2687-3.1425 1.6473-1.2512.3822-2.2069-.2892-3.3111-.6442-1.0027-.3224-1.8739-.731-2.9315-.4233-.6286.1828-1.8181.7486-2.2461 1.1595-.4307.4134-2.1898 2.175-2.9316 1.9509-.847-.2559-.9687-2.0528-.8646-2.6319.3929-2.186 1.0966-4.3855 1.0966-6.6073 0-1.2914-.3701-2.008-1.0228-3.1472-.4849-.8463-1.2737-1.0599-1.9192-1.7484-.5436-.5798-1.0936-1.1108-1.7083-1.6473-.6084-.5309-1.6676-.802-2.1723-1.3159-1.9161-1.9508-4.7155-1.4129-7.1812-.5522-2.4569.8577-4.2853 2.7936-6.6856 3.7362-.917.3601-1.8493.3063-2.6995.7914-.7631.4354-1.2471 1.2084-1.7716 1.8589-.5419.6721-1.2624 1.128-1.7926 1.8221-.4566.5976-.5696 1.3292-.8542 2.0245-.7777 1.9004-.0949 3.4961-.0949 5.3834 0 2.0499 2.1232 3.7834 3.3217 5.3926.5802.779 1.0581 1.8555 1.7083 2.549.4821.5142 1.0102 1.1251 1.3181 1.7393.7519 1.4996.5493 2.7107.4851 4.2791-.116 2.8355-3.6619 5.4765-2.3726 8.4017.6176 1.4014 1.2467 2.4267 2.573 3.4877 1.2793 1.0234 2.1452 2.4418 3.1108 3.681.7171.9204.9562 2.5174 1.2021 3.6441 0 0 .397 4.5804 0 7.4815-.2776 2.0288-.8203 4.7036-1.2021 5.1258-.7345.8118-1.1072 2.1072-1.6767 2.9907-.4477.6946-.7146 1.4417-1.4447 1.9877-.9291.695-1.362 1.0316-1.9403 1.9601-.7089 1.1384-.8426 2.3076-1.2865 3.5153-.4463 1.2143-.7217 2.6982-.7592 3.9755-.033 1.1236.1898 2.2028.1898 3.3128 0 1.81 1.1034 4.0154 2.1512 5.5394.1849.269.4353.627.696.838 1.3382 1.084 2.9527 1.982 4.2813 3.064 1.2835 1.046 2.5147 2.288 3.9754 3.138 1.0307.6 1.9759 1.953 3.2374 2.154 1.3283.21 2.6607.485 3.6907 1.334z" fill="#f2eee9"/><g clip-path="url(#c)"><path d="m92.3105 28.9338c-2.9945 0-5.4295 2.527-5.4295 5.6344 0 3.1223 2.4307 5.6344 5.4295 5.6344 3.0525 0 5.4295-2.5595 5.4295-5.6344 0-3.1074-2.4351-5.6344-5.4295-5.6344z" fill="#fff"/><path d="m92.4149 24.383c-5.4653 0-9.9111 4.6135-9.9111 10.2851 0 1.9158.5114 3.7857 1.4785 5.4079l7.868 13.1568c.3263.5468 1.0955.5384 1.4115-.0117l7.6672-13.2841c.913-1.5878 1.397-3.41 1.397-5.2689 0-5.6716-4.4458-10.2851-9.9111-10.2851zm0 15.439c-2.7721 0-4.9666-2.3415-4.9666-5.1539 0-2.8358 2.2339-5.154 4.9666-5.154 2.7326 0 4.9665 2.3182 4.9665 5.154 0 2.7876-2.1649 5.1539-4.9665 5.1539z" fill="#ce8d80"/></g><g clip-path="url(#d)"><path d="m78.0079 57.2198c-1.2995 0-2.3562 1.1027-2.3562 2.4587 0 1.3624 1.0548 2.4586 2.3562 2.4586 1.3246 0 2.3561-1.1168 2.3561-2.4586 0-1.356-1.0567-2.4587-2.3561-2.4587z" fill="#fff"/><path d="m78.0532 55.2341c-2.3718 0-4.3011 2.0132-4.3011 4.488 0 .836.2219 1.652.6416 2.3598l3.4145 5.7412c.1416.2386.4754.2349.6125-.0051l3.3273-5.7967c.3962-.6929.6062-1.488.6062-2.2992 0-2.4748-1.9293-4.488-4.301-4.488zm0 6.737c-1.203 0-2.1553-1.0217-2.1553-2.249 0-1.2374.9694-2.249 2.1553-2.249 1.1858 0 2.1553 1.0116 2.1553 2.249 0 1.2164-.9396 2.249-2.1553 2.249z" fill="#6474a1"/></g><g clip-path="url(#e)"><path d="m59.9228 44.4539c-1.2995 0-2.3562 1.1026-2.3562 2.4586 0 1.3624 1.0548 2.4586 2.3562 2.4586 1.3247 0 2.3562-1.1168 2.3562-2.4586 0-1.356-1.0567-2.4586-2.3562-2.4586z" fill="#fff"/><path d="m59.9681 42.4681c-2.3717 0-4.301 2.0132-4.301 4.488 0 .836.2219 1.652.6415 2.3598l3.4145 5.7412c.1416.2386.4754.2349.6125-.0051l3.3273-5.7967c.3962-.6929.6062-1.488.6062-2.2992 0-2.4748-1.9293-4.488-4.301-4.488zm0 6.737c-1.203 0-2.1553-1.0217-2.1553-2.249 0-1.2374.9694-2.249 2.1553-2.249 1.1858 0 2.1553 1.0116 2.1553 2.249 0 1.2164-.9395 2.249-2.1553 2.249z" fill="#6474a1"/></g><g clip-path="url(#f)"><path d="m62.5824 23.7092c-1.2995 0-2.3562 1.1026-2.3562 2.4586 0 1.3624 1.0548 2.4586 2.3562 2.4586 1.3246 0 2.3561-1.1168 2.3561-2.4586 0-1.356-1.0567-2.4586-2.3561-2.4586z" fill="#fff"/><path d="m62.6277 21.7234c-2.3718 0-4.3011 2.0132-4.3011 4.488 0 .836.2219 1.652.6416 2.3598l3.4145 5.7412c.1415.2386.4754.2349.6125-.0051l3.3273-5.7967c.3962-.6929.6062-1.488.6062-2.2992 0-2.4748-1.9293-4.488-4.301-4.488zm0 6.737c-1.203 0-2.1553-1.0217-2.1553-2.249 0-1.2374.9694-2.249 2.1553-2.249 1.1858 0 2.1553 1.0116 2.1553 2.249 0 1.2165-.9396 2.249-2.1553 2.249z" fill="#6474a1"/></g><g clip-path="url(#g)"><path d="m58.327 90.7305c-1.2995 0-2.3562 1.1026-2.3562 2.4586 0 1.3624 1.0549 2.4586 2.3562 2.4586 1.3247 0 2.3562-1.1168 2.3562-2.4586 0-1.356-1.0567-2.4586-2.3562-2.4586z" fill="#fff"/><path d="m58.3723 88.7447c-2.3717 0-4.301 2.0132-4.301 4.488 0 .836.2219 1.652.6416 2.3598l3.4144 5.7415c.1416.238.4754.235.6126-.005l3.3272-5.7971c.3962-.6929.6063-1.488.6063-2.2992 0-2.4748-1.9293-4.488-4.3011-4.488zm0 6.737c-1.203 0-2.1553-1.0217-2.1553-2.249 0-1.2374.9695-2.249 2.1553-2.249 1.1859 0 2.1553 1.0116 2.1553 2.249 0 1.2165-.9395 2.249-2.1553 2.249z" fill="#6474a1"/></g></g></g></svg>

<svg width="156" height="139" viewBox="0 0 156 139" fill="none" xmlns="http://www.w3.org/2000/svg">
<g filter="url(#filter0_dd)">
<g clip-path="url(#clip0)">
<path d="M69.536 113.986C70.3942 114.693 71.7946 115.073 72.341 115.974C72.9309 117.594 79.8331 119.151 81.22 116.802C81.6407 116.089 82.9814 115.722 83.0126 114.741C83.0522 113.496 82.4554 113.224 81.6418 112.33C80.7791 111.382 80.3109 110.483 79.0688 109.808C78.0425 109.251 76.9946 108.711 76.0002 108.115C75.03 107.533 73.9453 107.155 73.153 106.348C72.5296 105.713 72.1725 104.547 71.7189 103.799C69.463 100.08 67.6427 97.4845 65.0213 93.9259C63.9046 92.41 60.8047 92.8512 60.8047 90.4647C60.8047 88.6371 61.0701 86.9419 61.6062 85.1641C61.8964 84.2018 63.5235 81.0632 64.0315 80.1765C64.403 79.5091 66.617 75.0507 66.883 73.787C66.883 73.787 67.1078 70.6833 67.0685 69.7226C67.0235 68.6227 66.6232 67.2783 68.3023 66.9526C69.8547 66.6516 71.7987 67.7307 71.993 69.0876C72.16 70.2532 72.6008 71.6396 73.9017 72.2072C76.8041 73.4736 79.7279 74.8683 82.4643 76.4035C83.6346 77.06 84.8751 78.4071 86.3449 78.5292C87.6616 78.6387 87.7505 77.9102 88.5066 77.3053C88.9676 76.9365 88.7559 75.5696 88.6964 75.0507C88.5742 73.9843 88.0044 73.0046 87.6525 71.9955C86.8541 69.7065 85.3934 67.9492 85.6805 65.4435C85.8359 64.0872 87.1538 63.2575 88.0954 62.2778C88.8344 61.5088 89.7761 60.7345 90.9847 60.649C91.7299 60.5963 92.6592 60.1705 93.3679 59.9496C94.153 59.7049 94.758 59.6712 95.5823 59.6552C96.7696 59.6321 97.9191 59.2053 99.1044 59.1582C100.175 59.1158 101.118 59.1324 102.184 59.1582C103.355 59.1866 104.342 59.3052 105.505 59.149C107.344 58.9022 108.637 56.1227 108.637 54.6951C108.637 53.3664 108.701 51.4836 107.878 50.3424C107.198 49.4001 106.942 48.3043 106.212 47.3976C105.351 46.3282 105.016 44.8229 104.461 43.6246C104.212 43.0858 103.869 42.6143 103.597 42.097C103.319 41.5701 103.356 41.1053 102.985 40.5695C102.3 39.5804 101.728 38.7181 101.382 37.5879C101.075 36.5827 99.7034 35.6688 98.8091 35.048C97.9219 34.4322 97.123 33.6072 96.1096 33.1523C94.1068 32.2535 92.6392 32.2493 90.5102 32.7382C89.2221 33.034 88.6072 34.0069 87.3677 34.3855C86.1165 34.7677 85.1608 34.0963 84.0566 33.7413C83.0539 33.4189 82.1827 33.0103 81.1251 33.318C80.4965 33.5008 79.307 34.0666 78.879 34.4775C78.4483 34.8909 76.6892 36.6525 75.9474 36.4284C75.1004 36.1725 74.9787 34.3756 75.0828 33.7965C75.4757 31.6105 76.1794 29.411 76.1794 27.1892C76.1794 25.8978 75.8093 25.1812 75.1566 24.042C74.6717 23.1957 73.8829 22.9821 73.2374 22.2936C72.6938 21.7138 72.1438 21.1828 71.5291 20.6463C70.9207 20.1154 69.8615 19.8443 69.3568 19.3304C67.4407 17.3796 64.6413 17.9175 62.1756 18.7782C59.7187 19.6359 57.8903 21.5718 55.49 22.5144C54.573 22.8745 53.6407 22.8207 52.7905 23.3058C52.0274 23.7412 51.5434 24.5142 51.0189 25.1647C50.477 25.8368 49.7565 26.2927 49.2263 26.9868C48.7697 27.5844 48.6567 28.316 48.3721 29.0113C47.5944 30.9117 48.2772 32.5074 48.2772 34.3947C48.2772 36.4446 50.4004 38.1781 51.5989 39.7873C52.1791 40.5663 52.657 41.6428 53.3072 42.3363C53.7893 42.8505 54.3174 43.4614 54.6253 44.0756C55.3772 45.5752 55.1746 46.7863 55.1104 48.3547C54.9944 51.1902 51.4485 53.8312 52.7378 56.7564C53.3554 58.1578 53.9845 59.1831 55.3108 60.2441C56.5901 61.2675 57.456 62.6859 58.4216 63.9251C59.1387 64.8455 59.3778 66.4425 59.6237 67.5692C59.6237 67.5692 60.0207 72.1496 59.6237 75.0507C59.3461 77.0795 58.8034 79.7543 58.4216 80.1765C57.6871 80.9883 57.3144 82.2837 56.7449 83.1672C56.2972 83.8618 56.0303 84.6089 55.3002 85.1549C54.3711 85.8499 53.9382 86.1865 53.3599 87.115C52.651 88.2534 52.5173 89.4226 52.0734 90.6303C51.6271 91.8446 51.3517 93.3285 51.3142 94.6058C51.2812 95.7294 51.504 96.8086 51.504 97.9186C51.504 99.7286 52.6074 101.934 53.6552 103.458C53.8401 103.727 54.0905 104.085 54.3512 104.296C55.6894 105.38 57.3039 106.278 58.6325 107.36C59.916 108.406 61.1472 109.648 62.6079 110.498C63.6386 111.098 64.5838 112.451 65.8453 112.652C67.1736 112.862 68.506 113.137 69.536 113.986Z" fill="#F2EEE9"/>
<g clip-path="url(#clip1)">
<path d="M92.3105 28.9338C89.316 28.9338 86.881 31.4608 86.881 34.5682C86.881 37.6905 89.3117 40.2026 92.3105 40.2026C95.363 40.2026 97.74 37.6431 97.74 34.5682C97.74 31.4608 95.3049 28.9338 92.3105 28.9338Z" fill="white"/>
<path d="M92.4149 24.383C86.9496 24.383 82.5038 28.9965 82.5038 34.6681C82.5038 36.5839 83.0152 38.4538 83.9823 40.076L91.8503 53.2328C92.1766 53.7796 92.9458 53.7712 93.2618 53.2211L100.929 39.937C101.842 38.3492 102.326 36.527 102.326 34.6681C102.326 28.9965 97.8802 24.383 92.4149 24.383ZM92.4149 39.822C89.6428 39.822 87.4483 37.4805 87.4483 34.6681C87.4483 31.8323 89.6822 29.5141 92.4149 29.5141C95.1475 29.5141 97.3814 31.8323 97.3814 34.6681C97.3814 37.4557 95.2165 39.822 92.4149 39.822Z" fill="#CE8D80"/>
</g>
<g clip-path="url(#clip2)">
<path d="M78.0079 57.2198C76.7084 57.2198 75.6517 58.3225 75.6517 59.6785C75.6517 61.0409 76.7065 62.1371 78.0079 62.1371C79.3325 62.1371 80.364 61.0203 80.364 59.6785C80.364 58.3225 79.3073 57.2198 78.0079 57.2198Z" fill="white"/>
<path d="M78.0532 55.2341C75.6814 55.2341 73.7521 57.2473 73.7521 59.7221C73.7521 60.5581 73.974 61.3741 74.3937 62.0819L77.8082 67.8231C77.9498 68.0617 78.2836 68.058 78.4207 67.818L81.748 62.0213C82.1442 61.3284 82.3542 60.5333 82.3542 59.7221C82.3542 57.2473 80.4249 55.2341 78.0532 55.2341ZM78.0532 61.9711C76.8502 61.9711 75.8979 60.9494 75.8979 59.7221C75.8979 58.4847 76.8673 57.4731 78.0532 57.4731C79.239 57.4731 80.2085 58.4847 80.2085 59.7221C80.2085 60.9385 79.2689 61.9711 78.0532 61.9711Z" fill="#6474A1"/>
</g>
<g clip-path="url(#clip3)">
<path d="M59.9228 44.4539C58.6233 44.4539 57.5666 45.5565 57.5666 46.9125C57.5666 48.2749 58.6214 49.3711 59.9228 49.3711C61.2475 49.3711 62.279 48.2543 62.279 46.9125C62.279 45.5565 61.2223 44.4539 59.9228 44.4539Z" fill="white"/>
<path d="M59.9681 42.4681C57.5964 42.4681 55.6671 44.4813 55.6671 46.9561C55.6671 47.7921 55.889 48.6081 56.3086 49.3159L59.7231 55.0571C59.8647 55.2957 60.1985 55.292 60.3356 55.052L63.6629 49.2553C64.0591 48.5624 64.2691 47.7673 64.2691 46.9561C64.2691 44.4813 62.3398 42.4681 59.9681 42.4681ZM59.9681 49.2051C58.7651 49.2051 57.8128 48.1834 57.8128 46.9561C57.8128 45.7187 58.7822 44.7071 59.9681 44.7071C61.1539 44.7071 62.1234 45.7187 62.1234 46.9561C62.1234 48.1725 61.1839 49.2051 59.9681 49.2051Z" fill="#6474A1"/>
</g>
<g clip-path="url(#clip4)">
<path d="M62.5824 23.7092C61.2829 23.7092 60.2262 24.8118 60.2262 26.1678C60.2262 27.5302 61.281 28.6264 62.5824 28.6264C63.907 28.6264 64.9385 27.5096 64.9385 26.1678C64.9385 24.8118 63.8818 23.7092 62.5824 23.7092Z" fill="white"/>
<path d="M62.6277 21.7234C60.2559 21.7234 58.3266 23.7366 58.3266 26.2114C58.3266 27.0474 58.5485 27.8634 58.9682 28.5712L62.3827 34.3124C62.5242 34.551 62.8581 34.5473 62.9952 34.3073L66.3225 28.5106C66.7187 27.8177 66.9287 27.0226 66.9287 26.2114C66.9287 23.7366 64.9994 21.7234 62.6277 21.7234ZM62.6277 28.4604C61.4247 28.4604 60.4724 27.4387 60.4724 26.2114C60.4724 24.974 61.4418 23.9624 62.6277 23.9624C63.8135 23.9624 64.783 24.974 64.783 26.2114C64.783 27.4279 63.8434 28.4604 62.6277 28.4604Z" fill="#6474A1"/>
</g>
<g clip-path="url(#clip5)">
<path d="M58.327 90.7305C57.0275 90.7305 55.9708 91.8331 55.9708 93.1891C55.9708 94.5515 57.0257 95.6477 58.327 95.6477C59.6517 95.6477 60.6832 94.5309 60.6832 93.1891C60.6832 91.8331 59.6265 90.7305 58.327 90.7305Z" fill="white"/>
<path d="M58.3723 88.7447C56.0006 88.7447 54.0713 90.7579 54.0713 93.2327C54.0713 94.0687 54.2932 94.8847 54.7129 95.5925L58.1273 101.334C58.2689 101.572 58.6027 101.569 58.7399 101.329L62.0671 95.5319C62.4633 94.839 62.6734 94.0439 62.6734 93.2327C62.6734 90.7579 60.7441 88.7447 58.3723 88.7447ZM58.3723 95.4817C57.1693 95.4817 56.217 94.46 56.217 93.2327C56.217 91.9953 57.1865 90.9837 58.3723 90.9837C59.5582 90.9837 60.5276 91.9953 60.5276 93.2327C60.5276 94.4492 59.5881 95.4817 58.3723 95.4817Z" fill="#6474A1"/>
</g>
</g>
</g>
<defs>
<filter id="filter0_dd" x="0" y="-3" width="156" height="142" filterUnits="userSpaceOnUse" color-interpolation-filters="sRGB">
<feFlood flood-opacity="0" result="BackgroundImageFix"/>
<feColorMatrix in="SourceAlpha" type="matrix" values="0 0 0 0 0 0 0 0 0 0 0 0 0 0 0 0 0 0 127 0"/>
<feOffset dx="9" dy="9"/>
<feGaussianBlur stdDeviation="6"/>
<feColorMatrix type="matrix" values="0 0 0 0 0.9 0 0 0 0 0.9 0 0 0 0 0.9 0 0 0 0.5 0"/>
<feBlend mode="normal" in2="BackgroundImageFix" result="effect1_dropShadow"/>
<feColorMatrix in="SourceAlpha" type="matrix" values="0 0 0 0 0 0 0 0 0 0 0 0 0 0 0 0 0 0 127 0"/>
<feOffset dx="-9" dy="-9"/>
<feGaussianBlur stdDeviation="6"/>
<feColorMatrix type="matrix" values="0 0 0 0 0.99 0 0 0 0 0.99 0 0 0 0 0.99 0 0 0 0.5 0"/>
<feBlend mode="normal" in2="effect1_dropShadow" result="effect2_dropShadow"/>
<feBlend mode="normal" in="SourceGraphic" in2="effect2_dropShadow" result="shape"/>
</filter>
<clipPath id="clip0">
<rect x="21" y="18" width="114" height="100" fill="white"/>
</clipPath>
<clipPath id="clip1">
<rect x="78.3192" y="24.383" width="28.1915" height="29.2553" fill="white"/>
</clipPath>
<clipPath id="clip2">
<rect x="71.9362" y="55.2341" width="12.234" height="12.766" fill="white"/>
</clipPath>
<clipPath id="clip3">
<rect x="53.8511" y="42.4681" width="12.234" height="12.766" fill="white"/>
</clipPath>
<clipPath id="clip4">
<rect x="56.5107" y="21.7234" width="12.234" height="12.766" fill="white"/>
</clipPath>
<clipPath id="clip5">
<rect x="52.2553" y="88.7447" width="12.234" height="12.766" fill="white"/>
</clipPath>
</defs>
</svg>
